X: 473
T: Ba cong
L: 1/8
M: 2/4
K: F
d c A c [I:setbarnb 1]| 
G4 | 
d c A c | 
G4 | 
F2G2 | 
A f d c | 
c G c f | 
c A G F | 
C2F2 | 
GD2B, | 
C4 | 
AG2C | 
F4 | 
C2F2 | 
c AG2 | 
DD2B, | 
C4 |]

@@@ Tune index: 9347
